public/assets/svgs/addons/prember-sitemap-generator.svg

<svg height="52" viewBox="0 0 58 52" width="58" xmlns="http://www.w3.org/2000/svg"><g fill="none"><path d="m48.52148 12.31641c.3049262.186314.4872923.5211514.4784027.8783822-.0088896.3572309-.2076843.6825832-.5215.8535-.3138158.1709169-.6949765.1614318-.9999027-.0248822l-16.00973-10.16989h-4.9375l-16.00977 10.16992c-.471375.2880165-1.0869835.139375-1.375-.332s-.13937503-1.0869835.332-1.375l18.47877-11.67933c.6401512-.39112622 1.4453488-.39112622 2.0855 0z" fill="#bdc3c7"/><rect fill="#95a5a5" height="40" rx="2" width="58" y="12"/><path d="m13 7h32v50h-32z" fill="#fdd7ad" transform="matrix(0 1 -1 0 61 3)"/><path d="m47 31c-.5522847 0-1-.4477153-1-1v-4c0-.5522847.4477153-1 1-1s1 .4477153 1 1v4c0 .5522847-.4477153 1-1 1z" fill="#7f8c8d"/><path d="m13 45c-.5522847 0-1-.4477153-1-1v-7c0-.5522847.4477153-1 1-1s1 .4477153 1 1v7c0 .5522847-.4477153 1-1 1z" fill="#7f8c8d"/><g fill="#cc4b4c"><path d="m18 45h-1c-.5522847 0-1-.4477153-1-1s.4477153-1 1-1h1c.5522847 0 1 .4477153 1 1s-.4477153 1-1 1z"/><path d="m23 45h-1c-.5522847 0-1-.4477153-1-1s.4477153-1 1-1h1c.5522847 0 1 .4477153 1 1s-.4477153 1-1 1z"/><path d="m28 45h-1c-.5522847 0-1-.4477153-1-1s.4477153-1 1-1h1c.5522847 0 1 .4477153 1 1s-.4477153 1-1 1z"/><path d="m33 45h-1.00049c-.5522847 0-1-.4477153-1-1s.4477153-1 1-1h1.00049c.5522847 0 1 .4477153 1 1s-.4477153 1-1 1z"/><path d="m38 45h-.99951c-.5522847 0-1-.4477153-1-1s.4477153-1 1-1h.99951c.5522847 0 1 .4477153 1 1s-.4477153 1-1 1z"/><path d="m42.99951 45h-.99951c-.5522847 0-1-.4477153-1-1s.4477153-1 1-1h.99951c.5522847 0 1 .4477153 1 1s-.4477153 1-1 1z"/><path d="m44 42c-.5522847 0-1-.4477153-1-1v-.99951c0-.5522847.4477153-1 1-1s1 .4477153 1 1v.99951c0 .5522847-.4477153 1-1 1z"/><path d="m24 35c-.5522847 0-1-.4477153-1-1v-.99951c0-.5522847.4477153-1 1-1s1 .4477153 1 1v.99951c0 .5522847-.4477153 1-1 1z"/><path d="m38 38h-1c-.5522847 0-1-.4477153-1-1s.4477153-1 1-1h1c.5522847 0 1 .4477153 1 1s-.4477153 1-1 1z"/><path d="m43 38h-1c-.5522847 0-1-.4477153-1-1s.4477153-1 1-1h1c.5522847 0 1 .4477153 1 1s-.4477153 1-1 1z"/><path d="m33 38h-1c-.5522847 0-1-.4477153-1-1s.4477153-1 1-1h1c.5522847 0 1 .4477153 1 1s-.4477153 1-1 1z"/><path d="m28 38h-1c-.5522847 0-1-.4477153-1-1s.4477153-1 1-1h1c.5522847 0 1 .4477153 1 1s-.4477153 1-1 1z"/><path d="m28 31h-1c-.5522847 0-1-.4477153-1-1s.4477153-1 1-1h1c.5522847 0 1 .4477153 1 1s-.4477153 1-1 1z"/><path d="m33 31h-1c-.5522847 0-1-.4477153-1-1s.4477153-1 1-1h1c.5522847 0 1 .4477153 1 1s-.4477153 1-1 1z"/><path d="m37.99951 31h-.999c-.5522847 0-1-.4477153-1-1s.4477153-1 1-1h.999c.5522847 0 1 .4477153 1 1s-.4477153 1-1 1z"/><path d="m43 31h-1c-.5522847 0-1-.4477153-1-1s.4477153-1 1-1h1c.5522847 0 1 .4477153 1 1s-.4477153 1-1 1z"/></g><circle cx="29" cy="3" fill="#7f8c8d" r="3"/><g fill="#cc4b4c"><circle cx="47" cy="23" r="3"/><circle cx="13" cy="32" r="5"/></g></g></svg>

<?xml version="1.0" encoding="UTF-8"?>
<svg width="58px" height="52px" viewBox="0 0 58 52" version="1.1" xmlns="http://www.w3.org/2000/svg" xmlns:xlink="http://www.w3.org/1999/xlink">
    <!-- Generator: Sketch 47.1 (45422) - http://www.bohemiancoding.com/sketch -->
    <title>021 - Map</title>
    <desc>Created with Sketch.</desc>
    <defs></defs>
    <g id="Page-1" stroke="none" stroke-width="1" fill="none" fill-rule="evenodd">
        <g id="021---Map" fill-rule="nonzero">
            <path d="M48.52148,12.31641 C48.8264062,12.502724 49.0087723,12.8375614 48.9998827,13.1947922 C48.9909931,13.5520231 48.7921984,13.8773754 48.4783827,14.0482922 C48.1645669,14.2192091 47.7834062,14.209724 47.47848,14.02341 L31.46875,3.85352 L26.53125,3.85352 L10.52148,14.02344 C10.050105,14.3114565 9.4344965,14.162815 9.14648,13.69144 C8.8584635,13.220065 9.00710497,12.6044565 9.47848,12.31644 L27.95725,0.63711 C28.5974012,0.245983782 29.4025988,0.245983782 30.04275,0.63711 L48.52148,12.31641 Z" id="Shape" fill="#BDC3C7"></path>
            <rect id="Rectangle-path" fill="#95A5A5" x="0" y="12" width="58" height="40" rx="2"></rect>
            <rect id="Rectangle-path" fill="#FDD7AD" transform="translate(29.000000, 32.000000) rotate(90.000000) translate(-29.000000, -32.000000) " x="13" y="7" width="32" height="50"></rect>
            <path d="M47,31 C46.4477153,31 46,30.5522847 46,30 L46,26 C46,25.4477153 46.4477153,25 47,25 C47.5522847,25 48,25.4477153 48,26 L48,30 C48,30.5522847 47.5522847,31 47,31 Z" id="Shape" fill="#7F8C8D"></path>
            <path d="M13,45 C12.4477153,45 12,44.5522847 12,44 L12,37 C12,36.4477153 12.4477153,36 13,36 C13.5522847,36 14,36.4477153 14,37 L14,44 C14,44.5522847 13.5522847,45 13,45 Z" id="Shape" fill="#7F8C8D"></path>
            <path d="M18,45 L17,45 C16.4477153,45 16,44.5522847 16,44 C16,43.4477153 16.4477153,43 17,43 L18,43 C18.5522847,43 19,43.4477153 19,44 C19,44.5522847 18.5522847,45 18,45 Z" id="Shape" fill="#CC4B4C"></path>
            <path d="M23,45 L22,45 C21.4477153,45 21,44.5522847 21,44 C21,43.4477153 21.4477153,43 22,43 L23,43 C23.5522847,43 24,43.4477153 24,44 C24,44.5522847 23.5522847,45 23,45 Z" id="Shape" fill="#CC4B4C"></path>
            <path d="M28,45 L27,45 C26.4477153,45 26,44.5522847 26,44 C26,43.4477153 26.4477153,43 27,43 L28,43 C28.5522847,43 29,43.4477153 29,44 C29,44.5522847 28.5522847,45 28,45 Z" id="Shape" fill="#CC4B4C"></path>
            <path d="M33,45 L31.99951,45 C31.4472253,45 30.99951,44.5522847 30.99951,44 C30.99951,43.4477153 31.4472253,43 31.99951,43 L33,43 C33.5522847,43 34,43.4477153 34,44 C34,44.5522847 33.5522847,45 33,45 Z" id="Shape" fill="#CC4B4C"></path>
            <path d="M38,45 L37.00049,45 C36.4482053,45 36.00049,44.5522847 36.00049,44 C36.00049,43.4477153 36.4482053,43 37.00049,43 L38,43 C38.5522847,43 39,43.4477153 39,44 C39,44.5522847 38.5522847,45 38,45 Z" id="Shape" fill="#CC4B4C"></path>
            <path d="M42.99951,45 L42,45 C41.4477153,45 41,44.5522847 41,44 C41,43.4477153 41.4477153,43 42,43 L42.99951,43 C43.5517947,43 43.99951,43.4477153 43.99951,44 C43.99951,44.5522847 43.5517947,45 42.99951,45 Z" id="Shape" fill="#CC4B4C"></path>
            <path d="M44,42 C43.4477153,42 43,41.5522847 43,41 L43,40.00049 C43,39.4482053 43.4477153,39.00049 44,39.00049 C44.5522847,39.00049 45,39.4482053 45,40.00049 L45,41 C45,41.5522847 44.5522847,42 44,42 Z" id="Shape" fill="#CC4B4C"></path>
            <path d="M24,35 C23.4477153,35 23,34.5522847 23,34 L23,33.00049 C23,32.4482053 23.4477153,32.00049 24,32.00049 C24.5522847,32.00049 25,32.4482053 25,33.00049 L25,34 C25,34.5522847 24.5522847,35 24,35 Z" id="Shape" fill="#CC4B4C"></path>
            <path d="M38,38 L37,38 C36.4477153,38 36,37.5522847 36,37 C36,36.4477153 36.4477153,36 37,36 L38,36 C38.5522847,36 39,36.4477153 39,37 C39,37.5522847 38.5522847,38 38,38 Z" id="Shape" fill="#CC4B4C"></path>
            <path d="M43,38 L42,38 C41.4477153,38 41,37.5522847 41,37 C41,36.4477153 41.4477153,36 42,36 L43,36 C43.5522847,36 44,36.4477153 44,37 C44,37.5522847 43.5522847,38 43,38 Z" id="Shape" fill="#CC4B4C"></path>
            <path d="M33,38 L32,38 C31.4477153,38 31,37.5522847 31,37 C31,36.4477153 31.4477153,36 32,36 L33,36 C33.5522847,36 34,36.4477153 34,37 C34,37.5522847 33.5522847,38 33,38 Z" id="Shape" fill="#CC4B4C"></path>
            <path d="M28,38 L27,38 C26.4477153,38 26,37.5522847 26,37 C26,36.4477153 26.4477153,36 27,36 L28,36 C28.5522847,36 29,36.4477153 29,37 C29,37.5522847 28.5522847,38 28,38 Z" id="Shape" fill="#CC4B4C"></path>
            <path d="M28,31 L27,31 C26.4477153,31 26,30.5522847 26,30 C26,29.4477153 26.4477153,29 27,29 L28,29 C28.5522847,29 29,29.4477153 29,30 C29,30.5522847 28.5522847,31 28,31 Z" id="Shape" fill="#CC4B4C"></path>
            <path d="M33,31 L32,31 C31.4477153,31 31,30.5522847 31,30 C31,29.4477153 31.4477153,29 32,29 L33,29 C33.5522847,29 34,29.4477153 34,30 C34,30.5522847 33.5522847,31 33,31 Z" id="Shape" fill="#CC4B4C"></path>
            <path d="M37.99951,31 L37.00051,31 C36.4482253,31 36.00051,30.5522847 36.00051,30 C36.00051,29.4477153 36.4482253,29 37.00051,29 L37.99951,29 C38.5517947,29 38.99951,29.4477153 38.99951,30 C38.99951,30.5522847 38.5517947,31 37.99951,31 Z" id="Shape" fill="#CC4B4C"></path>
            <path d="M43,31 L42,31 C41.4477153,31 41,30.5522847 41,30 C41,29.4477153 41.4477153,29 42,29 L43,29 C43.5522847,29 44,29.4477153 44,30 C44,30.5522847 43.5522847,31 43,31 Z" id="Shape" fill="#CC4B4C"></path>
            <circle id="Oval" fill="#7F8C8D" cx="29" cy="3" r="3"></circle>
            <circle id="Oval" fill="#CC4B4C" cx="47" cy="23" r="3"></circle>
            <circle id="Oval" fill="#CC4B4C" cx="13" cy="32" r="5"></circle>
        </g>
    </g>
</svg>
